src/assets/G3.svg

<svg width="88" height="86" viewBox="0 0 88 86" fill="none" xmlns="http://www.w3.org/2000/svg">
<path d="M61.8972 29.335L44 78.9521L88 29.335H61.8972Z" fill="#FFE182"/>
<path d="M18.2069 7.44507L0 29.335H26.1028L18.2069 7.44507ZM61.8972 29.335H88L69.7931 7.44507L61.8972 29.335ZM61.8972 29.335L44 7.44507L26.1028 29.335H61.8972Z" fill="#FFCD73"/>
<path d="M43.9999 7.44507H18.2068L26.1027 29.335L43.9999 7.44507Z" fill="#FFAA64"/>
<path d="M69.7931 7.44507H44L61.8972 29.335L69.7931 7.44507Z" fill="#FFE182"/>
<path d="M26.1028 29.335L44 78.9521L61.8971 29.335H26.1028Z" fill="#FFAA64"/>
<path d="M0 29.335L44 78.9521L26.1028 29.335H0Z" fill="#FF8C5A"/>
</svg>

<svg width="88" height="86" fill="none" xmlns="http://www.w3.org/2000/svg"><path d="M61.897 29.335 44 78.952l44-49.617H61.897z" fill="#FFE182"/><path d="M18.207 7.445 0 29.335h26.103l-7.896-21.89zm43.69 21.89H88L69.793 7.445l-7.896 21.89zm0 0L44 7.445l-17.897 21.89h35.794z" fill="#FFCD73"/><path d="M44 7.445H18.207l7.896 21.89L44 7.445z" fill="#FFAA64"/><path d="M69.793 7.445H44l17.897 21.89 7.896-21.89z" fill="#FFE182"/><path d="M26.103 29.335 44 78.952l17.897-49.617H26.103z" fill="#FFAA64"/><path d="m0 29.335 44 49.617-17.897-49.617H0z" fill="#FF8C5A"/></svg>
